icons/file-user-32.svg

<?xml version="1.0" encoding="UTF-8"?><svg id="icons" xmlns="http://www.w3.org/2000/svg" viewBox="0 0 32 32"><defs><style>.cls-1{fill:none;}.cls-2{fill:#231f20;}</style></defs><rect class="cls-1" width="32" height="32"/><path class="cls-2" d="M15.40442,14c-.0639-.34595-.16089-.67981-.2865-1h10.88208v1H15.40442Zm7.59558,7h-5.64905c.2262,.31165,.41675,.64728,.58032,1h5.06873v-1Zm6-12.29102V26h-10.5v-1h9.5V10h-6V4H11v5.59558c-.32477-.06-.65808-.09558-1-.09558V3h13.28998l5.71002,5.70898Zm-1,.091l-4.79999-4.79999h-.20001v5h5v-.20001Zm-2,9.20001v-1H15.1181c-.13977,.354-.31989,.68597-.52661,1h11.40851Zm-9,6.5v4.5H3l.01001-4.5c0-2.48145,2.00854-4.5,4.48999-4.5h5c2.48145,0,4.5,2.01855,4.5,4.5Zm-1,0c0-1.92969-1.57031-3.5-3.5-3.5H7.5c-1.92969,0-3.5,1.57031-3.5,3.5v3.5h12v-3.5ZM6.01001,15c0-2.20557,1.78442-4,3.98999-4s4,1.79443,4,4-1.79443,4-4,4-3.98999-1.79443-3.98999-4Zm.98999,0c0,1.6543,1.3457,3,3,3s3-1.3457,3-3-1.3457-3-3-3-3,1.3457-3,3Z"/></svg>

<svg xmlns="http://www.w3.org/2000/svg" viewBox="0 0 32 32"><path fill="none" d="M0 0h32v32H0z"/><path d="M15.404 14a5.443 5.443 0 0 0-.286-1H26v1H15.404zM23 21h-5.649c.226.312.417.647.58 1H23v-1zm6-12.291V26H18.5v-1H28V10h-6V4H11v5.596a5.493 5.493 0 0 0-1-.096V3h13.29L29 8.709zM28 8.8L23.2 4H23v5h5v-.2zM26 18v-1H15.118a5.48 5.48 0 0 1-.527 1H26zm-9 6.5V29H3l.01-4.5c0-2.481 2.009-4.5 4.49-4.5h5c2.481 0 4.5 2.019 4.5 4.5zm-1 0c0-1.93-1.57-3.5-3.5-3.5h-5C5.57 21 4 22.57 4 24.5V28h12v-3.5zM6.01 15c0-2.206 1.784-4 3.99-4s4 1.794 4 4-1.794 4-4 4-3.99-1.794-3.99-4zM7 15c0 1.654 1.346 3 3 3s3-1.346 3-3-1.346-3-3-3-3 1.346-3 3z" fill="#231f20"/></svg>
